X:1
T:Title
%%score { 1 | ( 2 3 ) }
L:1/8
M:6/8
K:Eb
V:1 treble nm="Grand Piano"
V:2 bass 
V:3 bass 
V:1
 z3 z2[Q:1/4=78] E | GFE G2 G | ABc B2 E | GFE EFG |[M:5/8] [DF]-[DF]- [DF]3 |[M:1/8] E | %6
[M:3/4] GF E G2 G | AB c B2 E | G[B,EB] [CFA][B,EG] EF |[M:5/8] E-E- E3 |[M:1/8] B | %11
[M:3/4] [Ec][Ed] [Ee][Ee] [Ed][Ec] | B3 G2 G | [DB][DF] [EG][FA] [EG][DF] |[M:5/8] G3 B2 | %15
[M:1/8] B |[M:3/4] [Ec][Ed] [Ee][Ee] [Ed][Ec] | B3 G2 [G,E] | %18
 [B,EG][B,EB] [CFA][B,EG] [G,E][A,B,F] |[M:5/8] [G,B,E]-[G,B,E]- [G,B,E]3 |] %20
V:2
 z3 z2 [E,G,B,] | [E,B,E][E,A,E][E,G,] [E,B,E]2 [E,B,E] | B,-[G,B,E][A,E] [G,B,E]2 [G,B,] | %3
 [E,B,E][E,A,B,][E,G,B,] [F,=A,C][F,A,C][F,A,C] |[M:5/8] [B,,B,]-[B,,B,]- [B,,B,]3 | %5
[M:1/8] [E,G,B,] |[M:3/4] [E,B,E][E,A,E] [E,G,] [E,B,E]2 [E,B,E] | %7
 B,-[G,B,E] [A,E] [G,B,E]2 [G,B,] | [E,B,E]G,, A,,B,, [B,,G,][B,,A,B,] | %9
[M:5/8] [E,G,B,]-[E,G,B,]- [E,G,B,]3 |[M:1/8] [E,G,E] | %11
[M:3/4] [A,,A,][A,,B,] [A,,C][A,,C] [A,,B,][A,,A,] | [E,E]3- [E,B,E]2 [E,B,E] | %13
 [B,,B,][B,,B,] [B,,B,][B,,B,] [B,,B,][B,,B,] |[M:5/8] E3 G2 |[M:1/8] [E,G,E] | %16
[M:3/4] [A,,A,][A,,B,] [A,,C][A,,C] [A,,B,][A,,A,] | [E,E]3- [E,B,E]2 E, | E,G,, A,,B,, B,,B,, | %19
[M:5/8] E,-E,- E,3 |] %20
V:3
 x6 | x6 | .[F,D]3 z3 | x6 |[M:5/8] x5 |[M:1/8] x |[M:3/4] x6 | .[F,D]2 z2 z2 | x6 |[M:5/8] x5 | %10
[M:1/8] x |[M:3/4] x6 | G,4 z2 | x6 |[M:5/8] [E,B,]-[E,B,]- [E,B,]3 |[M:1/8] x |[M:3/4] x6 | %17
 G,4 z2 | x6 |[M:5/8] x5 |] %20

